static/logos/nuxtjs.svg

<svg width="556" height="98" viewBox="0 0 556 98" fill="none" xmlns="http://www.w3.org/2000/svg">
<path fill-rule="evenodd" clip-rule="evenodd" d="M74.4 3.69975C75.4 4.79975 76.1 6.29975 76 7.89975V89.3997C76 91.0997 75.4 92.7997 74.2 94.0997C73.6061 94.717 72.8907 95.2046 72.099 95.5316C71.3073 95.8586 70.4564 96.018 69.6 95.9997C68.6 95.9997 67.6 95.7997 66.6 95.4997C65.7918 95.2203 65.0688 94.7383 64.5 94.0997L11.7 25.3998V89.9997C11.7289 90.7909 11.5927 91.5793 11.3001 92.3149C11.0074 93.0505 10.5648 93.717 10.0003 94.2721C9.43583 94.8271 8.76194 95.2585 8.02155 95.5388C7.28117 95.819 6.49052 95.9419 5.7 95.8997C4.2 95.8997 2.7 95.2997 1.7 94.1997C0.612141 93.1125 0.000646709 91.6378 0 90.0997L0 8.39975C0 6.69975 0.7 4.99975 2 3.79975C2.5604 3.22802 3.22956 2.77422 3.96805 2.46509C4.70654 2.15595 5.49942 1.99773 6.3 1.99975C7.3 1.99975 8.4 2.19975 9.3 2.59975C10.3 2.89975 11.1 3.59975 11.7 4.29975L64.2 73.1997V7.89975C64.1711 7.10863 64.3073 6.32017 64.5999 5.58459C64.8926 4.84902 65.3352 4.18247 65.8997 3.62741C66.4642 3.07236 67.1381 2.64097 67.8784 2.36073C68.6188 2.0805 69.4095 1.95756 70.2 1.99975C71.7 1.99975 73.2 2.49975 74.2 3.69975H74.4ZM183.1 3.89975C184.2 5.19975 184.9 6.89975 184.8 8.49975V60.0998C184.9 66.6998 183.3 73.2997 180.1 79.0997C177.1 84.6997 172.6 89.2997 167.1 92.3997C161.5 95.6997 155.1 97.3998 148.5 97.2998C142 97.2998 135.5 95.6997 129.7 92.4997C124.228 89.388 119.728 84.8183 116.7 79.2998C113.51 73.4458 111.891 66.8655 112 60.1998V8.59975C112 6.89975 112.6 5.19975 114 3.99975C115.249 2.796 116.916 2.12339 118.65 2.12339C120.384 2.12339 122.051 2.796 123.3 3.99975C124.5 5.19975 125.2 6.79975 125.2 8.59975V59.9998C125.1 64.3998 126.2 68.6997 128.4 72.5997C130.424 76.1464 133.349 79.0959 136.878 81.1503C140.407 83.2047 144.416 84.2911 148.5 84.2998C151.686 84.3133 154.842 83.6925 157.785 82.4736C160.728 81.2547 163.399 79.4621 165.642 77.2003C167.886 74.9384 169.656 72.2527 170.851 69.2996C172.045 66.3464 172.64 63.1851 172.6 59.9998V8.59975C172.6 6.89975 173.1 5.19975 174.2 3.89975C175.4 2.59975 177 1.89975 178.7 1.99975C180.4 1.99975 182 2.69975 183.1 3.89975V3.89975ZM287 85.6997C287.765 86.8154 288.151 88.1478 288.1 89.4997C288.2 91.1997 287.5 92.8997 286.2 94.0997C285.029 95.1825 283.495 95.7888 281.9 95.7998C279.8 95.8998 277.8 94.7997 276.6 93.0997L250.6 58.2998L225 93.0997C224.434 93.9621 223.663 94.6698 222.755 95.1587C221.847 95.6476 220.831 95.9023 219.8 95.8997C218.2 95.8997 216.8 95.2997 215.7 94.1997C214.7 93.1997 214 91.7997 214 90.3997C214 88.7997 214.6 87.1997 215.6 85.9997L243.2 48.4998L215.5 11.2998C214.512 10.0934 214.014 8.55879 214.107 7.00194C214.199 5.44509 214.875 3.98035 216 2.89975C216.942 1.93348 218.17 1.29533 219.502 1.07929C220.834 0.863253 222.201 1.08075 223.4 1.69975C224.363 2.14279 225.191 2.83285 225.8 3.69975L251.6 38.2998L277 3.99975C278.1 2.29975 280 1.19975 282.1 0.999751C283.7 0.999751 285.3 1.79975 286.4 2.99975C287.5 3.99975 288.2 5.49975 288.3 6.99975C288.3 8.49975 287.8 9.79975 286.9 10.9998L258.9 48.1998L286.9 85.6997H287ZM383.5 3.69975C384.7 4.79975 385.5 6.49975 385.4 8.19975C385.4 9.89975 384.7 11.4998 383.4 12.5998C382.2 13.6998 380.5 14.2998 378.8 14.1998H355V89.5997C355 91.2997 354.4 92.8997 353.1 94.0997C351.748 95.2949 350.005 95.9545 348.2 95.9545C346.395 95.9545 344.652 95.2949 343.3 94.0997C342.677 93.526 342.178 92.8308 341.834 92.0568C341.49 91.2829 341.308 90.4467 341.3 89.5997V14.1998H317.5C315.8 14.1998 314.2 13.6998 312.9 12.4998C312.28 11.9288 311.79 11.2318 311.462 10.4556C311.135 9.6794 310.977 8.842 311 7.99975C311 6.39975 311.6 4.79975 312.8 3.69975C314.1 2.49975 315.8 1.89975 317.4 1.99975H378.8C380.5 1.99975 382.2 2.49975 383.5 3.69975Z" fill="#37322e"/>
<path fill-rule="evenodd" clip-rule="evenodd" d="M412.7 93.5999C408.4 91.1999 404.7 87.5999 402.2 83.2999C401.5 82.2999 401.1 80.9999 401 79.6999C401 77.9999 401.7 76.3999 403 75.2999C404.1 74.0999 405.6 73.4999 407.2 73.2999C409.6 73.5999 411.8 74.7999 413.2 76.6999C416.2 81.6999 421.6 84.6999 427.3 84.4999C429.6 84.5668 431.891 84.1713 434.036 83.3369C436.181 82.5026 438.136 81.2462 439.787 79.6423C441.437 78.0385 442.749 76.1197 443.645 73.9996C444.54 71.8795 445.001 69.6013 445 67.2999V8.49985C444.982 7.63421 445.151 6.77486 445.496 5.98083C445.841 5.18679 446.354 4.47688 447 3.89985C448.3 2.69985 450 1.99985 451.7 1.99985C453.5 1.99985 455.2 2.59985 456.5 3.79985C457.094 4.40579 457.56 5.1256 457.87 5.91608C458.179 6.70656 458.325 7.55139 458.3 8.39985V67.3999C458.409 72.6897 457.07 77.9086 454.426 82.4915C451.782 87.0745 447.934 90.8467 443.3 93.3999C438.658 96.0407 433.416 97.4459 428.076 97.4809C422.736 97.5159 417.476 96.1796 412.8 93.5999H412.7ZM505.2 93.9999C499.9 91.9999 495 88.9999 490.8 84.9999C489.967 84.3586 489.285 83.5429 488.802 82.6101C488.318 81.6772 488.044 80.6497 488 79.5999C488.01 78.7679 488.193 77.947 488.537 77.1896C488.882 76.4321 489.38 75.7545 490 75.1999C490.552 74.61 491.217 74.1377 491.956 73.8112C492.695 73.4847 493.492 73.3108 494.3 73.2999C495.8 73.2999 497.1 73.7999 498.2 74.7999C501.4 77.7999 505.2 80.2999 509.2 82.0999C513.4 83.6999 517.8 84.4999 522.2 84.4999C527.2 84.5999 532.2 83.2999 536.5 80.4999C540 78.4999 542.3 74.7999 542.3 70.6999C542.4 66.3999 540.2 62.2999 536.5 59.8999C531.123 56.7764 525.23 54.6426 519.1 53.5998C509.9 51.5998 502.8 48.5999 497.8 44.2999C492.8 39.9999 490.4 33.9999 490.4 26.3999C490.3 21.3999 491.7 16.4999 494.6 12.3999C497.5 8.39985 501.4 5.19985 506 3.19985C516.373 -0.937209 527.905 -1.11517 538.4 2.69985C542.86 4.18482 546.951 6.60552 550.4 9.79985C552.2 11.1999 553.4 13.2999 553.4 15.4999C553.402 16.3004 553.244 17.0933 552.935 17.8318C552.626 18.5703 552.172 19.2394 551.6 19.7999C551.058 20.4352 550.383 20.9437 549.622 21.2893C548.862 21.6349 548.035 21.8092 547.2 21.7999C546.2 21.7999 545 21.3999 544.2 20.6999C538.319 15.4265 530.699 12.507 522.8 12.4999C517.8 12.1999 512.8 13.4999 508.5 16.0999C506.871 17.1867 505.535 18.6589 504.611 20.3859C503.686 22.1128 503.203 24.0412 503.203 25.9999C503.203 27.9585 503.686 29.8869 504.611 31.6138C505.535 33.3408 506.871 34.813 508.5 35.8999C513.388 38.7819 518.731 40.8109 524.3 41.8999C530.2 42.9999 535.9 44.8999 541.4 47.1999C545.6 49.0999 549.2 51.9999 551.7 55.7999C554.3 60.1999 555.5 65.0999 555.3 70.1999C555.4 75.1999 553.9 79.9999 551 83.9999C548 88.1999 543.8 91.3999 539 93.3999C528.118 97.5588 516.122 97.7711 505.1 93.9999H505.2Z" fill="#37322e"/>
</svg>

<svg fill="none" xmlns="http://www.w3.org/2000/svg" viewBox="0 0 556 98"><path fill-rule="evenodd" clip-rule="evenodd" d="M74.4 3.7c1 1.1 1.7 2.6 1.6 4.2v81.5a7 7 0 01-1.8 4.7 6.2 6.2 0 01-4.6 1.9c-1 0-2-.2-3-.5a5 5 0 01-2.1-1.4L11.7 25.4V90a5.7 5.7 0 01-6 5.9c-1.5 0-3-.6-4-1.7-1-1-1.7-2.6-1.7-4.1V8.4C0 6.7.7 5 2 3.8A6 6 0 016.3 2c1 0 2.1.2 3 .6 1 .3 1.8 1 2.4 1.7l52.5 68.9V7.9a5.7 5.7 0 016-5.9 5 5 0 014 1.7h.2zm108.7.2c1.1 1.3 1.8 3 1.7 4.6v51.6c.1 6.6-1.5 13.2-4.7 19a35.5 35.5 0 01-31.6 18.2 39 39 0 01-18.8-4.8 34 34 0 01-13-13.2 38.6 38.6 0 01-4.7-19.1V8.6a6 6 0 012-4.6 6.7 6.7 0 019.3 0 6.4 6.4 0 011.9 4.6V60c-.1 4.4 1 8.7 3.2 12.6a23.2 23.2 0 0029.4 9.9A24 24 0 00172.6 60V8.6c0-1.7.5-3.4 1.6-4.7 1.2-1.3 2.8-2 4.5-1.9a6 6 0 014.4 1.9zM287 85.7a6.3 6.3 0 011.1 3.8c.1 1.7-.6 3.4-1.9 4.6a6.4 6.4 0 01-4.3 1.7c-2.1.1-4.1-1-5.3-2.7l-26-34.8L225 93.1a6.2 6.2 0 01-5.2 2.8c-1.6 0-3-.6-4.1-1.7-1-1-1.7-2.4-1.7-3.8a7 7 0 011.6-4.4l27.6-37.5-27.7-37.2a6.2 6.2 0 01.5-8.4 6.3 6.3 0 017.4-1.2 6 6 0 012.4 2l25.8 34.6L277 4c1.1-1.7 3-2.8 5.1-3a6 6 0 014.3 2 6 6 0 011.9 4c0 1.5-.5 2.8-1.4 4l-28 37.2 28 37.5h.1zm96.5-82c1.2 1.1 2 2.8 1.9 4.5 0 1.7-.7 3.3-2 4.4a6.3 6.3 0 01-4.6 1.6H355v75.4a6 6 0 01-1.9 4.5 7.4 7.4 0 01-9.8 0 6.2 6.2 0 01-2-4.5V14.2h-23.8c-1.7 0-3.3-.5-4.6-1.7A5.9 5.9 0 01311 8c0-1.6.6-3.2 1.8-4.3 1.3-1.2 3-1.8 4.6-1.7h61.4c1.7 0 3.4.5 4.7 1.7zM412.7 93.6a28 28 0 01-10.5-10.3c-.7-1-1.1-2.3-1.2-3.6 0-1.7.7-3.3 2-4.4a6.7 6.7 0 014.2-2c2.4.3 4.6 1.5 6 3.4 3 5 8.4 8 14.1 7.8A17.2 17.2 0 00445 67.3V8.5a6 6 0 012-4.6 7 7 0 019.5-.1 6.3 6.3 0 011.8 4.6v59a29 29 0 01-15 26 31.2 31.2 0 01-30.5.2h-.1zm92.5.4c-5.3-2-10.2-5-14.4-9a7.2 7.2 0 01-2.8-5.4 6 6 0 012-4.4 6 6 0 014.3-1.9c1.5 0 2.8.5 3.9 1.5 3.2 3 7 5.5 11 7.3 4.2 1.6 8.6 2.4 13 2.4 5 .1 10-1.2 14.3-4 3.5-2 5.8-5.7 5.8-9.8.1-4.3-2.1-8.4-5.8-10.8a52 52 0 00-17.4-6.3c-9.2-2-16.3-5-21.3-9.3-5-4.3-7.4-10.3-7.4-17.9-.1-5 1.3-9.9 4.2-14 2.9-4 6.8-7.2 11.4-9.2a45.5 45.5 0 0132.4-.5 33 33 0 0112 7.1c1.8 1.4 3 3.5 3 5.7a6 6 0 01-1.8 4.3 5.7 5.7 0 01-4.4 2c-1 0-2.2-.4-3-1.1a32.1 32.1 0 00-21.4-8.2c-5-.3-10 1-14.3 3.6a11.9 11.9 0 000 19.8 50 50 0 0015.8 6c5.9 1.1 11.6 3 17.1 5.3a24 24 0 0110.3 8.6 26 26 0 013.6 14.4c.1 5-1.4 9.8-4.3 13.8-3 4.2-7.2 7.4-12 9.4a49.8 49.8 0 01-33.9.6h.1z" fill="#37322e"/></svg>
